X: 23
T: Il Valzer di Mezzanotte    (Bm/B)
C: Franc Amodio 1937
S: Roaring Jelly collection
P: (AABBC)xN+A
M: 3/4
R: Waltz
L: 1/8
K: Bm
F cc de "A"[|\
"Bm"f6 | "Em"g6 | "Bm"fe d4- | d2ef ed |\
"F7"c6 | e6 | "Bm"dc B4 | "Bm/F"zF Bc de |
"Bm"f6 | "B7"a6 | "Em"gf e4- | e2 fg fe |\
"Bm"d2 z2 f2 | "F7"c2 z2 f2 | "Bm"B3 B B2 |1 !fine!B :|2 "Bm"B2 z2 z2 |]
K: B
"B"|:\
"B"f4 z2 | g2 a2 zb | "F7"a6- | "Cm7"a2 c'3 b |\
"F7"a4 a2 | g4 =g2 | "B"f6- | f2 f2 e2 |
"G#7"d6 | d2 f2 zd | "Cm"e6- | "E"e2 f2 e2 |\
"B"d2 z2 e2 | "F"c2 z2 f2 | "B"B2 zB B2 |1 B6 :|2 "(Bm)"B [K:=g=d=A][K:Bm]
F Bc de "C"[|\
"Bm"f4 d2 | "Em"e4 c2 | "Bm"d4 B2 | "F#7"c4 f2 |\
"Bm"(f2g2)f2 | "Em"(e2f2)e2 | "Bm"(d2e2)d2 | "F#7"c "d.C."y|]

%%sep 1 1 500
%%sep 1 1 500


